docs/images/roadmap/icons/morning-icon.svg

<svg width="32" height="32" viewBox="0 0 32 32" fill="none" xmlns="http://www.w3.org/2000/svg">
<path d="M2 23.5H29.998V25.5H2V23.5ZM16 16.5C17.0605 16.5013 18.0771 16.9231 18.827 17.673C19.5768 18.4228 19.9987 19.4395 20 20.5H22C22 18.9087 21.3679 17.3825 20.2426 16.2573C19.1174 15.1321 17.5913 14.5 16 14.5C14.4087 14.5 12.8826 15.1321 11.7574 16.2573C10.6321 17.3825 10 18.9087 10 20.5H12C12.0013 19.4395 12.4232 18.4228 13.173 17.673C13.9229 16.9231 14.9395 16.5013 16 16.5ZM25 18.5H30V20.5H25V18.5ZM21.687 13.4L25.193 9.89296L26.607 11.307L23.101 14.813L21.687 13.4ZM5.393 11.307L6.807 9.89296L10.313 13.399L8.9 14.813L5.393 11.307ZM2 18.5H7V20.5H2V18.5Z" fill="#BC002D"/>
<path d="M15 6.5V11.5H17V6.5H15Z" fill="#BC002D"/>
</svg>

<svg width="32" height="32" fill="none" xmlns="http://www.w3.org/2000/svg"><path d="M2 23.5h27.998v2H2v-2Zm14-7a4.005 4.005 0 0 1 4 4h2a6 6 0 1 0-12 0h2a4.005 4.005 0 0 1 4-4Zm9 2h5v2h-5v-2Zm-3.313-5.1 3.506-3.507 1.414 1.414-3.506 3.506-1.414-1.413ZM5.393 11.307l1.414-1.414 3.506 3.506L8.9 14.813l-3.507-3.506ZM2 18.5h5v2H2v-2Zm13-12v5h2v-5h-2Z" fill="#BC002D"/></svg>
